images/logo.svg

<svg width="39" height="39" viewBox="0 0 39 39" version="1.1" xmlns="http://www.w3.org/2000/svg" xmlns:xlink="http://www.w3.org/1999/xlink">
<title>Group 3</title>
<desc>Created using Figma</desc>
<g id="Canvas" transform="translate(-2347 -1975)">
<g id="Group 3">
<g id="Rectangle">
<use xlink:href="#path0_fill" transform="translate(2347 1975)" fill="#1F2D38"/>
</g>
<g id="Group 2">
<g id="Group">
<g id="Rectangle 4">
<use xlink:href="#path1_fill" transform="translate(2353.07 1980.2)" fill="url(#paint1_linear)"/>
</g>
<g id="Rectangle 4.2">
<use xlink:href="#path2_fill" transform="translate(2369.24 1992.91)" fill="url(#paint2_linear)"/>
</g>
<g id="Rectangle 4.1">
<use xlink:href="#path3_fill" transform="translate(2369.24 1980.2)" fill="url(#paint3_linear)"/>
</g>
<g id="Rectangle 4.3">
<use xlink:href="#path4_fill" transform="translate(2353.07 2001)" fill="#FFFFFF"/>
<use xlink:href="#path4_fill" transform="translate(2353.07 2001)" fill="url(#paint5_linear)"/>
</g>
</g>
</g>
</g>
</g>
<defs>
<linearGradient id="paint1_linear" x1="0" y1="0" x2="1" y2="0" gradientUnits="userSpaceOnUse" gradientTransform="matrix(6.55387 11.9986 -8.57044 9.17541 6.51411 -2.8232)">
<stop offset="0" stop-color="#3AB0D2"/>
<stop offset="1" stop-color="#29D2B2"/>
</linearGradient>
<linearGradient id="paint2_linear" x1="0" y1="0" x2="1" y2="0" gradientUnits="userSpaceOnUse" gradientTransform="matrix(7.07574e-16 15.0222 -11.5556 9.19846e-16 11.5556 0)">
<stop offset="0" stop-color="#C070FF"/>
<stop offset="1" stop-color="#FF5CF8"/>
</linearGradient>
<linearGradient id="paint3_linear" x1="0" y1="0" x2="1" y2="0" gradientUnits="userSpaceOnUse" gradientTransform="matrix(6.55387 5.99931 -8.57044 4.5877 6.51411 -1.4116)">
<stop offset="0" stop-color="#FFE924"/>
<stop offset="1" stop-color="#FFBB54"/>
</linearGradient>
<linearGradient id="paint5_linear" x1="0" y1="0" x2="1" y2="0" gradientUnits="userSpaceOnUse" gradientTransform="matrix(-7.08871 5.06056 -8.43427 -4.60994 13.7473 3.22888)">
<stop offset="0" stop-color="#FF7857"/>
<stop offset="1" stop-color="#F89E2D"/>
</linearGradient>
<path id="path0_fill" d="M 0 3.46667C 0 1.55208 1.55208 0 3.46667 0L 35.5333 0C 37.4479 0 39 1.55208 39 3.46667L 39 35.5333C 39 37.4479 37.4479 39 35.5333 39L 3.46667 39C 1.55208 39 0 37.4479 0 35.5333L 0 3.46667Z"/>
<path id="path1_fill" d="M 0 1.73333C 0 0.776039 0.77604 0 1.73333 0L 9.82222 0C 10.7795 0 11.5556 0.77604 11.5556 1.73333L 11.5556 14.4444C 11.5556 15.4017 10.7795 16.1778 9.82222 16.1778L 1.73333 16.1778C 0.77604 16.1778 0 15.4017 0 14.4444L 0 1.73333Z"/>
<path id="path2_fill" d="M 0 1.73333C 0 0.77604 0.77604 0 1.73333 0L 9.82222 0C 10.7795 0 11.5556 0.77604 11.5556 1.73333L 11.5556 13.2889C 11.5556 14.2462 10.7795 15.0222 9.82222 15.0222L 1.73333 15.0222C 0.77604 15.0222 0 14.2462 0 13.2889L 0 1.73333Z"/>
<path id="path3_fill" d="M 0 1.73333C 0 0.77604 0.77604 0 1.73333 0L 9.82222 0C 10.7795 0 11.5556 0.77604 11.5556 1.73333L 11.5556 6.35556C 11.5556 7.31285 10.7795 8.08889 9.82222 8.08889L 1.73333 8.08889C 0.77604 8.08889 0 7.31285 0 6.35556L 0 1.73333Z"/>
<path id="path4_fill" d="M 0 1.73333C 0 0.77604 0.77604 0 1.73333 0L 9.82222 0C 10.7795 0 11.5556 0.77604 11.5556 1.73333L 11.5556 5.2C 11.5556 6.15729 10.7795 6.93333 9.82222 6.93333L 1.73333 6.93333C 0.77604 6.93333 0 6.15729 0 5.2L 0 1.73333Z"/>
</defs>
</svg>

<svg width="39" height="39" xmlns="http://www.w3.org/2000/svg" xmlns:xlink="http://www.w3.org/1999/xlink"><g transform="translate(-2347 -1975)"><use xlink:href="#a" transform="translate(2347 1975)" fill="#1F2D38"/><use xlink:href="#b" transform="translate(2353.07 1980.2)" fill="url(#c)"/><use xlink:href="#d" transform="translate(2369.24 1992.91)" fill="url(#e)"/><use xlink:href="#f" transform="translate(2369.24 1980.2)" fill="url(#g)"/><use xlink:href="#h" transform="translate(2353.07 2001)" fill="#FFF"/><use xlink:href="#h" transform="translate(2353.07 2001)" fill="url(#i)"/></g><defs><linearGradient id="c" x2="1" gradientUnits="userSpaceOnUse" gradientTransform="matrix(6.55387 11.9986 -8.57044 9.17541 6.514 -2.823)"><stop offset="0" stop-color="#3AB0D2"/><stop offset="1" stop-color="#29D2B2"/></linearGradient><linearGradient id="e" x2="1" gradientUnits="userSpaceOnUse" gradientTransform="matrix(0 15.0222 -11.5556 0 11.556 0)"><stop offset="0" stop-color="#C070FF"/><stop offset="1" stop-color="#FF5CF8"/></linearGradient><linearGradient id="g" x2="1" gradientUnits="userSpaceOnUse" gradientTransform="matrix(6.55387 5.99931 -8.57044 4.5877 6.514 -1.412)"><stop offset="0" stop-color="#FFE924"/><stop offset="1" stop-color="#FFBB54"/></linearGradient><linearGradient id="i" x2="1" gradientUnits="userSpaceOnUse" gradientTransform="matrix(-7.08871 5.06056 -8.43427 -4.60994 13.747 3.229)"><stop offset="0" stop-color="#FF7857"/><stop offset="1" stop-color="#F89E2D"/></linearGradient><path id="a" d="M0 3.467A3.467 3.467 0 0 1 3.467 0h32.066A3.467 3.467 0 0 1 39 3.467v32.066A3.467 3.467 0 0 1 35.533 39H3.467A3.467 3.467 0 0 1 0 35.533V3.467z"/><path id="b" d="M0 1.733C0 .776.776 0 1.733 0h8.09c.957 0 1.733.776 1.733 1.733v12.711c0 .958-.776 1.734-1.734 1.734H1.733A1.733 1.733 0 0 1 0 14.444V1.734z"/><path id="d" d="M0 1.733C0 .776.776 0 1.733 0h8.09c.957 0 1.733.776 1.733 1.733V13.29c0 .957-.776 1.733-1.734 1.733H1.733A1.733 1.733 0 0 1 0 13.29V1.733z"/><path id="f" d="M0 1.733C0 .776.776 0 1.733 0h8.09c.957 0 1.733.776 1.733 1.733v4.623c0 .957-.776 1.733-1.734 1.733H1.733A1.733 1.733 0 0 1 0 6.356V1.733z"/><path id="h" d="M0 1.733C0 .776.776 0 1.733 0h8.09c.957 0 1.733.776 1.733 1.733V5.2c0 .957-.776 1.733-1.734 1.733H1.733A1.733 1.733 0 0 1 0 5.2V1.733z"/></defs></svg>
